src/assets/icons/thumbs-down.svg

<svg width="14" height="14" viewBox="0 0 14 14" fill="none" xmlns="http://www.w3.org/2000/svg">
<g id="thumbs-down">
<g clip-path="url(#clip0_156_4709)">
<path id="Vector" d="M12.1008 0H10.8128H9.61201H2.84881C1.97841 0 1.23361 0.624799 1.07841 1.488L0.0272078 7.488V7.4896C-0.0647922 8.0168 0.0792074 8.5536 0.422407 8.9616C0.764007 9.3672 1.26481 9.6 1.79761 9.6H5.02241V11.8C5.02241 13.0136 6.00641 14 7.28801 14C7.84561 14 8.35041 13.6656 8.57281 13.148L10.6008 8.4H12.1008C13.148 8.4 14 7.5496 14 6.504V1.888C14 0.846399 13.148 0 12.1008 0ZM9.60481 7.6768L7.46961 12.6752C7.43681 12.7512 7.36561 12.8 7.21601 12.8C6.66801 12.8 6.22241 12.3512 6.22241 11.8V8.4H1.79761C1.61761 8.4 1.45521 8.3248 1.34081 8.1888C1.22481 8.0512 1.17761 7.8752 1.20881 7.6952L2.26001 1.6984C2.31201 1.4096 2.56001 1.2 2.84881 1.2H9.61121L9.60481 7.6768ZM12.8 6.504C12.8 6.8872 12.4864 7.2 12.1008 7.2H10.812V1.2H12.1008C12.4856 1.2 12.8 1.5088 12.8 1.888V6.504Z" fill="black"/>
</g>
</g>
<defs>
<clipPath id="clip0_156_4709">
<rect width="14" height="14" fill="white"/>
</clipPath>
</defs>
</svg>

<svg xmlns="http://www.w3.org/2000/svg" fill="none" viewBox="0 0 14 14"><g clip-path="url(#a)"><path fill="#000" d="M12.1 0H2.85a1.8 1.8 0 0 0-1.77 1.488l-1.052 6v.002a1.793 1.793 0 0 0 1.77 2.11h3.225v2.2c0 1.214.984 2.2 2.266 2.2a1.4 1.4 0 0 0 1.285-.852L10.6 8.4h1.5A1.9 1.9 0 0 0 14 6.504V1.888A1.895 1.895 0 0 0 12.1 0M9.606 7.677 7.47 12.675c-.033.076-.104.125-.254.125a1 1 0 0 1-.994-1V8.4H1.798a.597.597 0 0 1-.589-.705L2.26 1.698a.6.6 0 0 1 .589-.498H9.61zM12.8 6.504a.7.7 0 0 1-.7.696h-1.288v-6h1.289c.385 0 .699.309.699.688z"/></g><defs><clipPath id="a"><path fill="#fff" d="M0 0h14v14H0z"/></clipPath></defs></svg>
